X: 160352
T: Paddy Kelly's (2)
S: M.Mulhaire
Z: B.Black
R: reel
Q: 360
M: 4/4
L: 1/8
K: Dmix
AD D2 (3DEF GA | cAGE CDEG | AD D2 (3DEF GA |c2 ec dcAG |
AD D2 (3DEF GA | cAGE CDEG | AD D2 (3DEF GA |cAGE ED D2 ||
fddB Adfd | e=ccd efge | fd d2 Adfd |g2 eg fd d2 |
fddB Adfd | e=ccd efge | afge fd (3Bcd |eaag fd d2 ||
